X:1
T:Title
%%score 1 { ( 2 4 ) | ( 3 5 6 ) }
L:1/8
M:3/4
K:A
V:1 treble nm="Akkordion"
V:2 treble nm="Grand Piano"
V:4 treble 
V:3 bass 
V:5 bass 
V:6 bass 
V:1
 z2 z2[Q:1/4=94] E2 | E3 A A>B | A2 G2 E2 | E3 B B>c | A4 E2 | E3 c c>B | B2 F2 F2 | B3 A GF | %8
[M:2/4] E4 |[M:1/4] E2 |[M:3/4] E3 G Bd | f2 e2 d2 | c3 E FG |[M:2/4] A4 |[M:1/4] G2 | %15
[M:3/4] G3 ^D EG | c2 B2 B2 | B3 ^D FA |[M:2/4] G4 |[M:1/4] B2 |[M:3/4] e3 ^d e>B | ^d2 c2 c2 | %22
 ^d3 c Fc |[M:2/4] B4 |[M:1/4] B2 |[M:3/4] B3 e e>B | ^d2 c2 c2 | B3 B A^D |[M:2/4] E4 | %29
[M:1/4] G2 |[M:3/4] G3 A Bc | d4 d2 | f3 e ^dc |[M:2/4] B4 |[M:1/4] z2 |[M:3/4] z6 | z6 | z6 | z6 | %39
 z6 | z6 | z6 | z6 | z6 | z6 | z6 | z6 |] %47
V:2
 z6 | z E AE AE | z E[K:treble] GE .G2 | z2 GE GD | z E[K:treble] CE AE | z E[K:treble] AE AE | %6
 z F BF .B2 | z ^D AD AD |[M:2/4] z E .G2 |[M:1/4] G z |[M:3/4] E3 E GB | d2 z2 z2 | E3 E ^D=D | %13
[M:2/4] C4 |[M:1/4] G2 |[M:3/4][K:bass] z/ B,/[K:treble]E/G/ BB, G[K:bass]B, | %16
 z/ B,/[K:treble]E/G/ BE G[K:bass]B, | z/ B,/[K:treble]^D/F/ BB, [DA][K:bass]B, | %18
[M:2/4] z/ B,/[K:treble]E/G/ BB, |[M:1/4] G[K:bass]B, | %20
[M:3/4] z/ B,/[K:treble]E/G/ BB, G[K:bass]B, | z/[K:treble] C/E/A/ cC AC | %22
 z/ B,/[K:treble]^D/F/ cB, [DA]2 |[M:2/4][K:bass] z/ B,/[K:treble]E/G/ BB, |[M:1/4] G[K:bass]B, | %25
[M:3/4] z/ B,/[K:treble]E/G/ BB, G[K:bass]B, | z/[K:treble] C/E/A/ cC EC | %27
 B,,2[K:treble] BB, ^D[K:bass]B, |[M:2/4] z/ B,/[K:treble]E/B/ G2 |[M:1/4] E2 |[M:3/4] E3 F GA | %31
 B4 B2 | d3 c BA |[M:2/4] G4 |[M:1/4] [CE]2 |[M:3/4] [Ec]3 [DB] [Fd][Ec] | [DB]2 [CA]2 [EA]>[EA] | %37
 [FA]3 [FA] [Fd]>[Fd] | [Ec]4 z2 | e c3 B[EA] | [Fd] [Fd]3 z2 | dd cd e>d | c4 z2 | %43
 E2 z E,[K:treble] [CE]2 | [DF]2 F2[K:bass] C,D, | CC E[K:treble]E E>E | [CE]4 z2 |] %47
V:3
 z6 | z2 z2 .C2 | z2 z2 DE | z E .D2 .D2 | z2 z2 .C2 | z2 z2 .C2 | z2 z2[K:treble] DF | %7
 z2[K:treble] .[B,F]2 .[B,F]2 |[M:2/4] z2 DE |[M:1/4] DE |[M:3/4][K:bass] E,G, B,D B,G, | %11
 .A,,2 [A,,A,]2 [D,A,]2 | E,3 C, B,,E, |[M:2/4] [A,,E,]4 |[M:1/4] z2 |[M:3/4] z2 z2 .[E,E]2 | %16
 z2 z2 .[E,E]2 | B,,4 [B,,F,]2 |[M:2/4] z4 |[M:1/4] E z |[M:3/4] G,,4 .[E,E]2 | A,,4 .[A,E]2 | %22
 B,,4 [B,,F,]2 |[M:2/4] z4 |[M:1/4] E z |[M:3/4] z2 z2 .E2 | A,,4 A,,2 | %27
 z/[K:treble] ^D/E/G/[K:bass] [B,,G,]2 [B,,F,]2 |[M:2/4] z2 E2 |[M:1/4] z2 |[M:3/4] z6 | z6 | z6 | %33
[M:2/4] z4 |[M:1/4] [A,,A,]2 |[M:3/4] [A,,A,]3 [A,,A,] [A,,A,][A,,A,] | %36
 [E,G,]2 [A,,A,]2 [C,A,]>[C,A,] | [D,A,]3 [D,A,] [D,A,]>[D,A,] | [A,,A,]4 z2 | %39
 [A,CE] [A,E]3 [E,G,E][C,A,] | [D,A,] [D,A,]3 z2 | [E,G,E][E,B,E] [E,^A,E][E,B,E] [E,CE]>[E,B,E] | %42
 [A,E]4 z2 | A,4 z2 | .D,2 D2 z2 | [E,A,]A, [A,C][E,G,B,] [E,C]>[E,B,D] | [A,,A,]4 z2 |] %47
V:4
 x6 | A,6 | B,,6[K:treble] | x6 | E,6[K:treble] | E,6[K:treble] | D,6 | x6 |[M:2/4] E,4- | %9
[M:1/4] E,2 |[M:3/4] x6 | z E, c2 F2 | x6 |[M:2/4] x4 |[M:1/4] x2 | %15
[M:3/4][K:bass] E,4[K:treble] z2[K:bass] | E,4[K:treble] z2[K:bass] | F,4[K:treble] z2[K:bass] | %18
[M:2/4] E,4[K:treble] |[M:1/4] x[K:bass] x |[M:3/4] E,4[K:treble] z2[K:bass] | E,4[K:treble] z2 | %22
 F,4[K:treble] z2 |[M:2/4][K:bass] E,4[K:treble] |[M:1/4] x[K:bass] x | %25
[M:3/4] E,6[K:treble][K:bass] | E,4[K:treble] z2 | x2[K:treble] x3[K:bass] x | %28
[M:2/4] E,4[K:treble] |[M:1/4] x2 |[M:3/4] x6 | x6 | x6 |[M:2/4] x4 |[M:1/4] x2 |[M:3/4] x6 | x6 | %37
 x6 | x6 | x6 | x6 | x6 | x6 | x4[K:treble] x2 | x4[K:bass] x2 | x3[K:treble] x3 | x6 |] %47
V:5
 x6 | A,,6 | x6 | E,6 | A,,6 | A,,6 | x4[K:treble] x2 | B,,6[K:treble] |[M:2/4] x4 |[M:1/4] x2 | %10
[M:3/4][K:bass] x6 | x6 | x6 |[M:2/4] x4 |[M:1/4] x2 |[M:3/4] E,,6 | E,,6 | x6 |[M:2/4] x4 | %19
[M:1/4] E,2 |[M:3/4] x6 | x6 | x6 |[M:2/4] x4 |[M:1/4] E,2 |[M:3/4] G,,6 | x6 | %27
 x/[K:treble] x3/2[K:bass] x4 |[M:2/4] E,,4 |[M:1/4] x2 |[M:3/4] x6 | x6 | x6 |[M:2/4] x4 | %34
[M:1/4] x2 |[M:3/4] x6 | x6 | x6 | x6 | x6 | x6 | x6 | x6 | C2 z2 C,A,, | z B,,3 z2 | z .E,3 z2 | %46
 x6 |] %47
V:6
 x6 | x6 | x6 | x6 | x6 | x6 | x4[K:treble] x2 | x2[K:treble] x4 |[M:2/4] x4 |[M:1/4] x2 | %10
[M:3/4][K:bass] x6 | x6 | x6 |[M:2/4] x4 |[M:1/4] x2 |[M:3/4] x6 | x6 | x6 |[M:2/4] E,,4- | %19
[M:1/4] E,,2 |[M:3/4] x6 | x6 | x6 |[M:2/4] E,,4- |[M:1/4] E,,2 |[M:3/4] x6 | x6 | %27
 x/[K:treble] x3/2[K:bass] x4 |[M:2/4] x4 |[M:1/4] x2 |[M:3/4] x6 | x6 | x6 |[M:2/4] x4 | %34
[M:1/4] x2 |[M:3/4] x6 | x6 | x6 | x6 | x6 | x6 | x6 | x6 | x6 | x6 | x6 | x6 |] %47

